images/icons/links/steam.svg

<svg width="30" height="30" viewBox="0 0 30 30" fill="none" xmlns="http://www.w3.org/2000/svg">
<circle cx="15" cy="15" r="15" fill="black"/>
<g clip-path="url(#clip0)">
<path d="M20.7246 6.08587C17.6896 6.08587 15.2137 8.52912 15.1901 11.5415L11.7437 16.4597C10.7821 16.3727 9.95291 16.5712 9.21975 17.0161L4.5 15.1157V20.3058L7.29125 21.4232C7.69453 23.2711 9.35569 24.664 11.3213 24.664C13.4583 24.664 15.2291 23.03 15.4239 20.9493L20.73 17.0896C23.7741 17.0896 26.25 14.6327 26.25 11.5859L26.2491 11.585C26.2491 8.55268 23.7732 6.08587 20.7246 6.08587ZM8.64066 21.9643C9.13547 22.1528 9.63572 22.3603 10.1314 22.5542C11.3703 23.0617 12.7777 22.4573 13.2725 21.2239C13.7727 19.9905 13.1656 18.5985 11.9285 18.1046L10.6661 17.5971C12.5457 17.1802 14.3555 18.5885 14.3564 20.5469C14.3555 22.2253 10.1169 24.7229 8.64066 21.9643ZM20.73 15.2716C18.681 15.2716 17.0162 13.6268 17.0162 11.5859C17.0162 9.55409 18.6765 7.90018 20.73 7.90018C22.7646 7.90018 24.4293 9.55409 24.4293 11.5859C24.4293 13.6322 22.7637 15.2771 20.73 15.2716Z" fill="white"/>
<path d="M20.74 8.62893C19.1042 8.62893 17.7793 9.94933 17.7793 11.5788C17.7793 13.2082 19.0997 14.5286 20.74 14.5286C22.3658 14.5286 23.7007 13.2127 23.7007 11.5788C23.7007 9.9448 22.3658 8.62893 20.74 8.62893Z" fill="white"/>
</g>
<defs>
<clipPath id="clip0">
<rect width="21.75" height="21.75" fill="white" transform="translate(4.5 4.5)"/>
</clipPath>
</defs>
</svg>

<svg width="30" height="30" fill="none" xmlns="http://www.w3.org/2000/svg"><circle cx="15" cy="15" r="15" fill="#000"/><g clip-path="url(#clip0)" fill="#fff"><path d="M20.725 6.086c-3.035 0-5.511 2.443-5.535 5.455l-3.446 4.919c-.962-.087-1.791.111-2.524.556l-4.72-1.9v5.19l2.791 1.117a4.138 4.138 0 004.03 3.241c2.137 0 3.908-1.634 4.103-3.715l5.306-3.86c3.044 0 5.52-2.456 5.52-5.503v-.001c0-3.032-2.477-5.5-5.525-5.5zM8.64 21.964c.494.189.995.396 1.49.59a2.404 2.404 0 003.142-1.33 2.39 2.39 0 00-1.345-3.12l-1.262-.507c1.88-.417 3.69.991 3.69 2.95 0 1.678-4.24 4.176-5.715 1.417zm12.089-6.692c-2.049 0-3.714-1.645-3.714-3.686 0-2.032 1.66-3.686 3.714-3.686 2.035 0 3.7 1.654 3.7 3.686a3.688 3.688 0 01-3.7 3.686z"/><path d="M20.74 8.629a2.955 2.955 0 00-2.96 2.95c0 1.63 1.32 2.95 2.96 2.95a2.958 2.958 0 002.96-2.95 2.958 2.958 0 00-2.96-2.95z"/></g><defs><clipPath id="clip0"><path fill="#fff" transform="translate(4.5 4.5)" d="M0 0h21.75v21.75H0z"/></clipPath></defs></svg>
